places/16/folder-desktop.svg

<?xml version="1.0" encoding="UTF-8" standalone="no"?>
<svg
   viewBox="0 0 16 16"
   version="1.1"
   id="svg1"
   xmlns="http://www.w3.org/2000/svg"
   xmlns:svg="http://www.w3.org/2000/svg">
  <defs
     id="defs3051">
    <style type="text/css" id="current-color-scheme">.ColorScheme-Text { color: #fcfcfc; } </style>
  </defs>
  <path
     style="fill:currentColor"
     d="m 2,3 c 0,0.5842491 0,9.505551 0,10 0,0.494449 0.4859628,1 1,1 0.5140372,0 9.497303,0 10,0 0.502697,0 1,-0.515143 1,-1 C 14,12.515143 14,3.5355263 14,3 14,2.4644737 13.511284,2 13,2 12.488716,2 3.512127,2 3,2 2.487873,2 2,2.4157509 2,3 Z m 1,0 h 10 v 8 H 3 Z M 4,4 V 7 H 7 V 5 H 6 L 5.1,4 Z m -1,8 h 1 v 1 H 3 Z m 2,0 h 4 v 1 H 5 Z m 5,0 h 1 v 1 h -1 z m 2,0 h 1 v 1 h -1 z"
     class="ColorScheme-Text"
     id="path1" />
</svg>

<?xml version="1.0" encoding="UTF-8" standalone="no"?>
<svg
   viewBox="0 0 16 16"
   version="1.1"
   id="svg6"
   sodipodi:docname="folder-desktop.svg"
   inkscape:version="1.1.1 (3bf5ae0d25, 2021-09-20)"
   xmlns:inkscape="http://www.inkscape.org/namespaces/inkscape"
   xmlns:sodipodi="http://sodipodi.sourceforge.net/DTD/sodipodi-0.dtd"
   xmlns="http://www.w3.org/2000/svg"
   xmlns:svg="http://www.w3.org/2000/svg">
  <sodipodi:namedview
     id="namedview8"
     pagecolor="#ffffff"
     bordercolor="#666666"
     borderopacity="1.0"
     inkscape:pageshadow="2"
     inkscape:pageopacity="0.0"
     inkscape:pagecheckerboard="0"
     showgrid="false"
     inkscape:zoom="39.25"
     inkscape:cx="8"
     inkscape:cy="8"
     inkscape:window-width="1920"
     inkscape:window-height="1013"
     inkscape:window-x="0"
     inkscape:window-y="0"
     inkscape:window-maximized="1"
     inkscape:current-layer="svg6" />
  <defs
     id="defs3051">
    <style
       type="text/css"
       id="current-color-scheme">
      .ColorScheme-Text {
        color:#232629
      }
      </style>
  </defs>
  <path
     style="fill:#eff0f1;fill-opacity:1"
     d="M 2 2 L 2 14 L 14 14 L 14 2 L 2 2 z M 3 3 L 13 3 L 13 11 L 3 11 L 3 3 z M 4 4 L 4 7 L 7 7 L 7 5 L 6 5 L 5.1 4 L 4 4 z M 3 12 L 4 12 L 4 13 L 3 13 L 3 12 z M 5 12 L 9 12 L 9 13 L 5 13 L 5 12 z M 10 12 L 11 12 L 11 13 L 10 13 L 10 12 z M 12 12 L 13 12 L 13 13 L 12 13 L 12 12 z "
     class="ColorScheme-Text"
     id="path4" />
</svg>
